Icons and Attr/Book/icon_4584.svg

<svg xmlns="http://www.w3.org/2000/svg" width="100" height="100" viewBox="0 0 100 100" fill="#fff"><path d="M88.08 0h-61.326c-8.878 0-18.807 7.831-18.807 18.31v77.696c0 2.194 1.778 3.973 3.972 3.974 0 0 58.666.021 63.357.021 2.194 0 3.974-1.779 3.974-3.974 0-3.581 3.522-8.995 8.83-8.995 2.194 0 3.973-1.779 3.973-3.974v-79.084c0-2.195-1.779-3.974-3.973-3.974zm-74.173 18.461h59.464v75.579c-9.868-.003-50.039-.018-59.464-.021v-75.558zm72.186 62.75c-.846.121-1.654.322-2.428.585v-71.531c0-1.097-.889-1.987-1.986-1.987h-56.845c-1.097 0-1.986.89-1.986 1.987s.889 1.987 1.986 1.987h54.857v71.673c-.93.704-1.769 1.504-2.509 2.375v-69.744c0-1.052-.854-1.905-1.906-1.905h-60.712c1.858-5.099 7.344-8.691 12.19-8.691h59.339v75.251z"/></svg>

<svg xmlns="http://www.w3.org/2000/svg" xmlns:xlink="http://www.w3.org/1999/xlink" version="1.1" id="Book" x="0px" y="0px" width="100px" height="100px" viewBox="0 0 100 100" enable-background="new 0 0 100 100" fill="white" xml:space="preserve"> <path d="M88.08,0H26.754C17.876,0,7.947,7.831,7.947,18.31v77.696c0,2.194,1.778,3.973,3.972,3.974c0,0,58.666,0.021,63.357,0.021  c2.194,0,3.974-1.779,3.974-3.974c0-3.581,3.522-8.995,8.83-8.995c2.194,0,3.973-1.779,3.973-3.974V3.974  C92.053,1.779,90.274,0,88.08,0z M13.907,18.461h59.464V94.04c-9.868-0.003-50.039-0.018-59.464-0.021V18.461z M86.093,81.211  c-0.846,0.121-1.654,0.322-2.428,0.585V10.265c0-1.097-0.889-1.987-1.986-1.987H24.834c-1.097,0-1.986,0.89-1.986,1.987  s0.889,1.987,1.986,1.987h54.857v71.673c-0.93,0.704-1.769,1.504-2.509,2.375V16.556c0-1.052-0.854-1.905-1.906-1.905H14.564  c1.858-5.099,7.344-8.691,12.19-8.691h59.339V81.211z"/> </svg>
